X: 1
T:Fraser's Jig
R:Jig
O:Canada
M:6/8
Q:1/8=300
C:Dan Hughie MacEachern
A:Cape Breton
K:C
GAG d3| dcd g3| f2 c dfd | cAF AGF| \
GAG d3| ded g2 a| f2 d cAF| G3 G3:|
g3 def| gfg d2 e| f2 c dfd| cAF F3| \
g3 def| gfg d2 e| f2 d cAF| G3 G3|
g3 def| gfg d2 e| f2 c dfd| cAF F3|\
GAG dcd| gfg a2 g| f2 d cAF| G3 G3|]
